src/site/assets/img/icons/fa-male-dk-grey.svg

<?xml version="1.0" encoding="UTF-8"?>
<svg width="23px" height="39px" viewBox="0 0 23 39" version="1.1" xmlns="http://www.w3.org/2000/svg" xmlns:xlink="http://www.w3.org/1999/xlink">
    <!-- Generator: Sketch 42 (36781) - http://www.bohemiancoding.com/sketch -->
    <title>dk-grey</title>
    <desc>Created with Sketch.</desc>
    <defs></defs>
    <g id="Page-1" stroke="none" stroke-width="1" fill="none" fill-rule="evenodd">
        <g id="dk-grey" fill="#757575">
            <path d="M0.635153846,25.6194545 C1.03323077,26.0573182 1.54984615,26.2558636 2.14430769,26.2558636 C2.70161538,26.2558636 3.21646154,26.0573182 3.61453846,25.6194545 C4.05153846,25.2205909 4.24969231,24.7047273 4.24969231,24.1463182 L4.24969231,16.3480909 L5.67923077,16.3480909 L5.67923077,36.6015 C5.67923077,37.2769091 5.91807692,37.8353182 6.394,38.3511818 C6.91061538,38.8298182 7.50507692,39.0673636 8.18092308,39.0673636 C8.85676923,39.0673636 9.41230769,38.8298182 9.92892308,38.3511818 C10.4048462,37.8353182 10.6436923,37.2769091 10.6436923,36.5607273 L10.6436923,26.2558636 L12.0732308,26.2558636 L12.0732308,36.5607273 C12.0732308,37.2769091 12.3120769,37.8353182 12.788,38.3511818 C13.3046154,38.8298182 13.8601538,39.0673636 14.5342308,39.0673636 C15.2100769,39.0673636 15.8063077,38.8298182 16.3211538,38.3511818 C16.7988462,37.8353182 17.0376923,37.2769091 17.0376923,36.6015 L17.0376923,16.3480909 L18.4265385,16.3480909 L18.4265385,24.1463182 C18.4265385,24.7047273 18.6246923,25.2205909 19.0616923,25.6194545 C19.4597692,26.0573182 19.9763846,26.2558636 20.5708462,26.2558636 C21.1263846,26.2558636 21.643,26.0573182 22.0410769,25.6194545 C22.4780769,25.2205909 22.6762308,24.7047273 22.6762308,24.1463182 L22.6762308,14.9157273 C22.6762308,13.7209091 22.2781538,12.7264091 21.4448462,11.8914545 C20.6115385,11.0565 19.619,10.6576364 18.4265385,10.6576364 L4.24969231,10.6576364 C3.059,10.6576364 2.06646154,11.0565 1.23138462,11.8914545 C0.398076923,12.7264091 0,13.7209091 0,14.9157273 L0,24.1463182 C0,24.7047273 0.199923077,25.2205909 0.635153846,25.6194545 L0.635153846,25.6194545 Z M11.3584615,9.98045455 C12.7473077,9.98045455 13.8990769,9.50359091 14.8916154,8.50909091 C15.8452308,7.55359091 16.3211538,6.39954545 16.3211538,5.00795455 C16.3211538,3.61459091 15.8452308,2.46054545 14.8916154,1.50681818 C13.8990769,0.510545455 12.7473077,0.0336818182 11.3584615,0.0336818182 C9.96784615,0.0336818182 8.81607692,0.510545455 7.82353846,1.50681818 C6.86992308,2.46054545 6.394,3.61459091 6.394,5.00795455 C6.394,6.39954545 6.86992308,7.55359091 7.82353846,8.50909091 C8.81607692,9.50359091 9.96784615,9.98045455 11.3584615,9.98045455 L11.3584615,9.98045455 Z" id="Fill-19"></path>
        </g>
    </g>
</svg>

<svg xmlns="http://www.w3.org/2000/svg" viewBox="0 0 23 39" width="23px" height="39px"><path d="M.63515 25.61945c.39808.43787.9147.63641 1.50916.63641.5573 0 1.07215-.19854 1.47023-.6364.437-.39887.63515-.91473.63515-1.47314v-7.79823h1.42954V36.6015c0 .6754.23885 1.23382.71477 1.74968.51662.47864 1.11108.71618 1.78692.71618.67585 0 1.23139-.23754 1.748-.71618.47593-.51586.71477-1.07427.71477-1.79045V26.25586h1.42954v10.30487c0 .71618.23885 1.27459.71477 1.79045.51662.47864 1.07215.71618 1.74623.71618.67585 0 1.27208-.23754 1.78692-.71618.4777-.51586.71654-1.07427.71654-1.74968V16.3481h1.38885v7.79822c0 .5584.19815 1.07427.63515 1.47313.39808.43787.9147.63641 1.50916.63641.55553 0 1.07215-.19854 1.47023-.6364.437-.39887.63515-.91473.63515-1.47314v-9.2306c0-1.19481-.39808-2.18931-1.23138-3.02427-.83331-.83495-1.82585-1.23381-3.01831-1.23381H4.24969c-1.19069 0-2.18323.39886-3.0183 1.23381C.39807 12.72641 0 13.72091 0 14.91573v9.23059c0 .5584.19992 1.07427.63515 1.47313zm10.72331-15.639c1.38885 0 2.54062-.47686 3.53316-1.47136.95361-.9555 1.42953-2.10954 1.42953-3.50114 0-1.39336-.47592-2.5474-1.42953-3.50113C13.89908.51055 12.7473.03368 11.35846.03368c-1.39061 0-2.54238.47687-3.53492 1.47314C6.86992 2.46055 6.394 3.61459 6.394 5.00795c0 1.3916.47592 2.54564 1.42954 3.50114.99254.9945 2.1443 1.47136 3.53492 1.47136z" fill="#757575" fill-rule="evenodd"/></svg>
